src/assets/images/realtime/realtimekit/web/components-gallery/rtk-meeting-title.svg

<svg width="400" height="300" viewBox="0 0 400 300" fill="none" xmlns="http://www.w3.org/2000/svg" xmlns:xlink="http://www.w3.org/1999/xlink">
<g clip-path="url(#clip0_9781_45406)">
<rect width="400" height="300" fill="white"/>
<g style="mix-blend-mode:darken">
<path d="M0 4.21053C0 1.88512 1.88512 0 4.21053 0H395.789C398.115 0 400 1.88512 400 4.21053V295.789C400 298.115 398.115 300 395.789 300H4.21054C1.88513 300 0 298.115 0 295.789V4.21053Z" fill="url(#pattern0_9781_45406)"/>
</g>
<rect x="48.5837" y="70" width="302.833" height="252" rx="8.33484" fill="#0B0B0B"/>
<g opacity="0.4">
<g clip-path="url(#clip1_9781_45406)">
<rect x="56.9185" y="103.528" width="138.914" height="104.185" rx="4.16742" fill="#1E1E1E"/>
<path d="M187.857 112.57C187.282 112.57 186.815 112.104 186.815 111.528C186.815 110.953 187.282 110.486 187.857 110.486C188.433 110.486 188.899 110.953 188.899 111.528C188.899 112.104 188.433 112.57 187.857 112.57ZM187.857 116.737C187.282 116.737 186.815 116.271 186.815 115.696C186.815 115.12 187.282 114.654 187.857 114.654C188.433 114.654 188.899 115.12 188.899 115.696C188.899 116.271 188.433 116.737 187.857 116.737ZM186.815 119.863C186.815 120.438 187.282 120.905 187.857 120.905C188.433 120.905 188.899 120.438 188.899 119.863C188.899 119.288 188.433 118.821 187.857 118.821C187.282 118.821 186.815 119.288 186.815 119.863Z" fill="#999999"/>
<rect x="75.3247" y="197.179" width="32.4133" height="4.05165" rx="2.02582" fill="#474747"/>
</g>
<g clip-path="url(#clip2_9781_45406)">
<rect x="204.167" y="103.528" width="138.914" height="104.185" rx="4.16742" fill="#1E1E1E"/>
<path d="M335.106 112.57C334.531 112.57 334.064 112.104 334.064 111.528C334.064 110.953 334.531 110.486 335.106 110.486C335.681 110.486 336.148 110.953 336.148 111.528C336.148 112.104 335.681 112.57 335.106 112.57ZM335.106 116.737C334.531 116.737 334.064 116.271 334.064 115.696C334.064 115.12 334.531 114.654 335.106 114.654C335.681 114.654 336.148 115.12 336.148 115.696C336.148 116.271 335.681 116.737 335.106 116.737ZM334.064 119.863C334.064 120.438 334.531 120.905 335.106 120.905C335.681 120.905 336.148 120.438 336.148 119.863C336.148 119.288 335.681 118.821 335.106 118.821C334.531 118.821 334.064 119.288 334.064 119.863Z" fill="#999999"/>
<rect x="222.574" y="197.179" width="32.4133" height="4.05165" rx="2.02582" fill="#474747"/>
</g>
<g clip-path="url(#clip3_9781_45406)">
<rect x="56.9185" y="216.048" width="138.914" height="104.185" rx="4.16742" fill="#1E1E1E"/>
<path d="M187.857 225.09C187.282 225.09 186.815 224.624 186.815 224.048C186.815 223.473 187.282 223.006 187.857 223.006C188.433 223.006 188.899 223.473 188.899 224.048C188.899 224.624 188.433 225.09 187.857 225.09ZM187.857 229.257C187.282 229.257 186.815 228.791 186.815 228.216C186.815 227.64 187.282 227.174 187.857 227.174C188.433 227.174 188.899 227.64 188.899 228.216C188.899 228.791 188.433 229.257 187.857 229.257ZM186.815 232.383C186.815 232.958 187.282 233.425 187.857 233.425C188.433 233.425 188.899 232.958 188.899 232.383C188.899 231.808 188.433 231.341 187.857 231.341C187.282 231.341 186.815 231.808 186.815 232.383Z" fill="#999999"/>
</g>
<g clip-path="url(#clip4_9781_45406)">
<rect x="204.167" y="216.048" width="138.914" height="104.185" rx="4.16742" fill="#1E1E1E"/>
<path d="M335.106 225.09C334.531 225.09 334.064 224.624 334.064 224.048C334.064 223.473 334.531 223.006 335.106 223.006C335.681 223.006 336.148 223.473 336.148 224.048C336.148 224.624 335.681 225.09 335.106 225.09ZM335.106 229.257C334.531 229.257 334.064 228.791 334.064 228.216C334.064 227.64 334.531 227.174 335.106 227.174C335.681 227.174 336.148 227.64 336.148 228.216C336.148 228.791 335.681 229.257 335.106 229.257ZM334.064 232.383C334.064 232.958 334.531 233.425 335.106 233.425C335.681 233.425 336.148 232.958 336.148 232.383C336.148 231.808 335.681 231.341 335.106 231.341C334.531 231.341 334.064 231.808 334.064 232.383Z" fill="#999999"/>
</g>
</g>
<path d="M160.476 78.609H161.868L165.143 86.6073H165.256L168.531 78.609H169.923V88.2446H168.832V80.9238H168.738L165.726 88.2446H164.673L161.661 80.9238H161.567V88.2446H160.476V78.609ZM175.142 88.3952C174.446 88.3952 173.845 88.2415 173.34 87.9341C172.838 87.6236 172.451 87.1907 172.178 86.6356C171.908 86.0772 171.773 85.428 171.773 84.6877C171.773 83.9475 171.908 83.2951 172.178 82.7305C172.451 82.1628 172.83 81.7205 173.317 81.4037C173.806 81.0838 174.377 80.9238 175.029 80.9238C175.406 80.9238 175.777 80.9866 176.144 81.112C176.511 81.2375 176.845 81.4414 177.146 81.7237C177.447 82.0028 177.687 82.3729 177.866 82.834C178.045 83.2951 178.134 83.8628 178.134 84.5372V85.0077H172.564V84.0479H177.005C177.005 83.6401 176.924 83.2763 176.761 82.9563C176.601 82.6364 176.372 82.3839 176.074 82.1989C175.779 82.0138 175.431 81.9213 175.029 81.9213C174.587 81.9213 174.204 82.0311 173.881 82.2506C173.561 82.467 173.315 82.7493 173.142 83.0975C172.97 83.4457 172.884 83.8189 172.884 84.2173V84.8571C172.884 85.4029 172.978 85.8655 173.166 86.2451C173.357 86.6214 173.622 86.9084 173.961 87.106C174.3 87.3005 174.694 87.3978 175.142 87.3978C175.434 87.3978 175.697 87.357 175.932 87.2754C176.171 87.1907 176.376 87.0653 176.549 86.899C176.721 86.7297 176.855 86.5195 176.949 86.2686L178.021 86.5697C177.909 86.9335 177.719 87.2535 177.452 87.5295C177.186 87.8024 176.856 88.0157 176.464 88.1694C176.072 88.3199 175.631 88.3952 175.142 88.3952ZM182.853 88.3952C182.157 88.3952 181.556 88.2415 181.051 87.9341C180.55 87.6236 180.162 87.1907 179.889 86.6356C179.62 86.0772 179.485 85.428 179.485 84.6877C179.485 83.9475 179.62 83.2951 179.889 82.7305C180.162 82.1628 180.542 81.7205 181.028 81.4037C181.517 81.0838 182.088 80.9238 182.74 80.9238C183.117 80.9238 183.489 80.9866 183.855 81.112C184.222 81.2375 184.557 81.4414 184.858 81.7237C185.159 82.0028 185.399 82.3729 185.577 82.834C185.756 83.2951 185.846 83.8628 185.846 84.5372V85.0077H180.275V84.0479H184.716C184.716 83.6401 184.635 83.2763 184.472 82.9563C184.312 82.6364 184.083 82.3839 183.785 82.1989C183.49 82.0138 183.142 81.9213 182.74 81.9213C182.298 81.9213 181.916 82.0311 181.592 82.2506C181.273 82.467 181.026 82.7493 180.854 83.0975C180.681 83.4457 180.595 83.8189 180.595 84.2173V84.8571C180.595 85.4029 180.689 85.8655 180.877 86.2451C181.069 86.6214 181.334 86.9084 181.672 87.106C182.011 87.3005 182.405 87.3978 182.853 87.3978C183.145 87.3978 183.409 87.357 183.644 87.2754C183.882 87.1907 184.088 87.0653 184.26 86.899C184.433 86.7297 184.566 86.5195 184.66 86.2686L185.733 86.5697C185.62 86.9335 185.43 87.2535 185.163 87.5295C184.897 87.8024 184.568 88.0157 184.175 88.1694C183.783 88.3199 183.343 88.3952 182.853 88.3952ZM190.678 81.0179V81.9589H186.932V81.0179H190.678ZM188.024 79.2865H189.134V86.1745C189.134 86.4881 189.18 86.7234 189.271 86.8802C189.365 87.0339 189.484 87.1374 189.628 87.1907C189.776 87.2409 189.931 87.266 190.094 87.266C190.216 87.266 190.317 87.2597 190.395 87.2472C190.474 87.2315 190.536 87.219 190.583 87.2096L190.809 88.207C190.734 88.2352 190.629 88.2634 190.494 88.2917C190.359 88.323 190.188 88.3387 189.981 88.3387C189.668 88.3387 189.36 88.2713 189.059 88.1364C188.761 88.0015 188.513 87.7961 188.316 87.5201C188.121 87.2441 188.024 86.8959 188.024 86.4756V79.2865ZM192.348 88.2446V81.0179H193.458V88.2446H192.348ZM192.912 79.8135C192.696 79.8135 192.509 79.7398 192.353 79.5924C192.199 79.4449 192.122 79.2677 192.122 79.0607C192.122 78.8537 192.199 78.6765 192.353 78.5291C192.509 78.3816 192.696 78.3079 192.912 78.3079C193.129 78.3079 193.314 78.3816 193.468 78.5291C193.624 78.6765 193.703 78.8537 193.703 79.0607C193.703 79.2677 193.624 79.4449 193.468 79.5924C193.314 79.7398 193.129 79.8135 192.912 79.8135ZM196.602 83.8973V88.2446H195.492V81.0179H196.565V82.1471H196.659C196.828 81.7801 197.085 81.4853 197.43 81.2626C197.775 81.0368 198.221 80.9238 198.766 80.9238C199.256 80.9238 199.684 81.0242 200.051 81.225C200.418 81.4226 200.703 81.7237 200.907 82.1283C201.111 82.5298 201.213 83.0379 201.213 83.6527V88.2446H200.103V83.7279C200.103 83.1602 199.955 82.718 199.66 82.4012C199.366 82.0812 198.961 81.9213 198.446 81.9213C198.092 81.9213 197.775 81.9981 197.496 82.1518C197.22 82.3055 197.002 82.5298 196.842 82.8246C196.682 83.1195 196.602 83.477 196.602 83.8973ZM206.159 91.1052C205.623 91.1052 205.162 91.0362 204.776 90.8982C204.39 90.7633 204.068 90.5845 203.811 90.3618C203.557 90.1423 203.355 89.907 203.204 89.6561L204.089 89.035C204.189 89.1668 204.316 89.3173 204.47 89.4867C204.624 89.6592 204.834 89.8082 205.1 89.9337C205.37 90.0623 205.723 90.1266 206.159 90.1266C206.742 90.1266 207.224 89.9854 207.603 89.7031C207.983 89.4208 208.173 88.9786 208.173 88.3764V86.9084H208.079C207.997 87.0402 207.881 87.2033 207.73 87.3978C207.583 87.5891 207.37 87.76 207.091 87.9106C206.815 88.058 206.441 88.1317 205.971 88.1317C205.387 88.1317 204.864 87.9937 204.399 87.7177C203.938 87.4417 203.573 87.0402 203.303 86.5132C203.036 85.9863 202.903 85.3464 202.903 84.5936C202.903 83.8534 203.033 83.2088 203.294 82.6599C203.554 82.1079 203.916 81.6813 204.381 81.3802C204.845 81.076 205.381 80.9238 205.99 80.9238C206.46 80.9238 206.833 81.0023 207.109 81.1591C207.388 81.3128 207.602 81.4884 207.749 81.686C207.9 81.8805 208.016 82.0405 208.097 82.1659H208.21V81.0179H209.283V88.4516C209.283 89.0727 209.142 89.5777 208.86 89.9666C208.58 90.3587 208.204 90.6457 207.73 90.8276C207.26 91.0127 206.736 91.1052 206.159 91.1052ZM206.121 87.1343C206.567 87.1343 206.943 87.0323 207.25 86.8285C207.558 86.6246 207.792 86.3313 207.952 85.9486C208.111 85.566 208.191 85.108 208.191 84.5748C208.191 84.0542 208.113 83.5946 207.956 83.1963C207.799 82.798 207.567 82.4859 207.26 82.26C206.953 82.0342 206.573 81.9213 206.121 81.9213C205.651 81.9213 205.259 82.0405 204.945 82.2788C204.635 82.5172 204.401 82.8372 204.244 83.2386C204.09 83.6401 204.014 84.0855 204.014 84.5748C204.014 85.0767 204.092 85.5205 204.249 85.9063C204.409 86.289 204.644 86.5901 204.955 86.8096C205.268 87.0261 205.657 87.1343 206.121 87.1343ZM214.665 79.6441V78.609H221.892V79.6441H218.862V88.2446H217.695V79.6441H214.665ZM223.542 88.2446V81.0179H224.653V88.2446H223.542ZM224.107 79.8135C223.89 79.8135 223.704 79.7398 223.547 79.5924C223.393 79.4449 223.316 79.2677 223.316 79.0607C223.316 78.8537 223.393 78.6765 223.547 78.5291C223.704 78.3816 223.89 78.3079 224.107 78.3079C224.323 78.3079 224.508 78.3816 224.662 78.5291C224.819 78.6765 224.897 78.8537 224.897 79.0607C224.897 79.2677 224.819 79.4449 224.662 79.5924C224.508 79.7398 224.323 79.8135 224.107 79.8135ZM229.829 81.0179V81.9589H226.084V81.0179H229.829ZM227.176 79.2865H228.286V86.1745C228.286 86.4881 228.331 86.7234 228.422 86.8802C228.517 87.0339 228.636 87.1374 228.78 87.1907C228.927 87.2409 229.083 87.266 229.246 87.266C229.368 87.266 229.468 87.2597 229.547 87.2472C229.625 87.2315 229.688 87.219 229.735 87.2096L229.961 88.207C229.886 88.2352 229.781 88.2634 229.646 88.2917C229.511 88.323 229.34 88.3387 229.133 88.3387C228.819 88.3387 228.512 88.2713 228.211 88.1364C227.913 88.0015 227.665 87.7961 227.467 87.5201C227.273 87.2441 227.176 86.8959 227.176 86.4756V79.2865ZM232.765 78.609V88.2446H231.655V78.609H232.765ZM237.829 88.3952C237.132 88.3952 236.532 88.2415 236.027 87.9341C235.525 87.6236 235.137 87.1907 234.865 86.6356C234.595 86.0772 234.46 85.428 234.46 84.6877C234.46 83.9475 234.595 83.2951 234.865 82.7305C235.137 82.1628 235.517 81.7205 236.003 81.4037C236.492 81.0838 237.063 80.9238 237.716 80.9238C238.092 80.9238 238.464 80.9866 238.831 81.112C239.198 81.2375 239.532 81.4414 239.833 81.7237C240.134 82.0028 240.374 82.3729 240.553 82.834C240.732 83.2951 240.821 83.8628 240.821 84.5372V85.0077H235.25V84.0479H239.692C239.692 83.6401 239.61 83.2763 239.447 82.9563C239.287 82.6364 239.058 82.3839 238.76 82.1989C238.465 82.0138 238.117 81.9213 237.716 81.9213C237.273 81.9213 236.891 82.0311 236.568 82.2506C236.248 82.467 236.002 82.7493 235.829 83.0975C235.657 83.4457 235.57 83.8189 235.57 84.2173V84.8571C235.57 85.4029 235.664 85.8655 235.853 86.2451C236.044 86.6214 236.309 86.9084 236.648 87.106C236.986 87.3005 237.38 87.3978 237.829 87.3978C238.12 87.3978 238.384 87.357 238.619 87.2754C238.857 87.1907 239.063 87.0653 239.235 86.899C239.408 86.7297 239.541 86.5195 239.635 86.2686L240.708 86.5697C240.595 86.9335 240.405 87.2535 240.139 87.5295C239.872 87.8024 239.543 88.0157 239.151 88.1694C238.759 88.3199 238.318 88.3952 237.829 88.3952Z" fill="white" fill-opacity="0.88"/>
<rect x="126" y="47" width="149" height="72" rx="8" stroke="#E7883B" stroke-width="2" stroke-linecap="round" stroke-dasharray="6 6"/>
</g>
<defs>
<pattern id="pattern0_9781_45406" patternContentUnits="objectBoundingBox" width="0.0368421" height="0.0491228">
<use xlink:href="#image0_9781_45406" transform="scale(0.000657895 0.000877193)"/>
</pattern>
<clipPath id="clip0_9781_45406">
<rect width="400" height="300" fill="white"/>
</clipPath>
<clipPath id="clip1_9781_45406">
<rect x="56.9185" y="103.528" width="138.914" height="104.185" rx="4.16742" fill="white"/>
</clipPath>
<clipPath id="clip2_9781_45406">
<rect x="204.167" y="103.528" width="138.914" height="104.185" rx="4.16742" fill="white"/>
</clipPath>
<clipPath id="clip3_9781_45406">
<rect x="56.9185" y="216.048" width="138.914" height="104.185" rx="4.16742" fill="white"/>
</clipPath>
<clipPath id="clip4_9781_45406">
<rect x="204.167" y="216.048" width="138.914" height="104.185" rx="4.16742" fill="white"/>
</clipPath>
<image id="image0_9781_45406" width="56" height="56" preserveAspectRatio="none" xlink:href="data:image/png;base64,iVBORw0KGgoAAAANSUhEUgAAADgAAAA4CAYAAACohjseAAAACXBIWXMAACxLAAAsSwGlPZapAAAAAXNSR0IArs4c6QAAAARnQU1BAACxjwv8YQUAAADdSURBVHgB7dmxDoMgFIXhCzEmbsbF9388F8PGAKHt6dSksvXaHHK+EQbzB0Sj4fFiA4s2OAWyUyA7BbJTIDsFslMgOwWyUyA7BbJTIDsFspvsBrVWO8/TSinWWrNlWWxdV5sm/8sH7w+/iDuO4x32KcZo+767R7pv0ZTSVxxgDKvqzT0w59ydw5b15h4YQujOXa3sr7kHzvPcncNh4809cNu2y1XEGE5Sb+GO32c4SXHY4H5EGFYV4UM8Jv5Nr2rsFMhOgewUyE6B7BTIToHsFMhOgewUyE6B7IYPfALcB0NZ5j6jXgAAAABJRU5ErkJggg=="/>
</defs>
</svg>

<svg xmlns="http://www.w3.org/2000/svg" xmlns:xlink="http://www.w3.org/1999/xlink" width="400" height="300" fill="none" viewBox="0 0 400 300"><g clip-path="url(#clip0_9781_45406)"><path fill="#fff" d="M0 0h400v300H0z"/><path fill="url(#pattern0_9781_45406)" d="M0 4.21A4.21 4.21 0 0 1 4.21 0h391.58A4.21 4.21 0 0 1 400 4.21v291.58a4.21 4.21 0 0 1-4.211 4.211H4.211A4.21 4.21 0 0 1 0 295.789z" style="mix-blend-mode:darken"/><rect width="302.833" height="252" x="48.584" y="70" fill="#0b0b0b" rx="8.335"/><g opacity=".4"><g clip-path="url(#clip1_9781_45406)"><rect width="138.914" height="104.185" x="56.919" y="103.528" fill="#1e1e1e" rx="4.167"/><path fill="#999" d="M187.857 112.57a1.042 1.042 0 1 1 0-2.084 1.042 1.042 0 0 1 0 2.084m0 4.167a1.042 1.042 0 1 1 0-2.084 1.042 1.042 0 0 1 0 2.084m-1.042 3.126a1.043 1.043 0 1 0 2.085-.001 1.043 1.043 0 0 0-2.085.001"/><rect width="32.413" height="4.052" x="75.325" y="197.179" fill="#474747" rx="2.026"/></g><g clip-path="url(#clip2_9781_45406)"><rect width="138.914" height="104.185" x="204.167" y="103.528" fill="#1e1e1e" rx="4.167"/><path fill="#999" d="M335.106 112.57a1.042 1.042 0 1 1 0-2.084 1.042 1.042 0 0 1 0 2.084m0 4.167a1.042 1.042 0 1 1 0-2.084 1.042 1.042 0 0 1 0 2.084m-1.042 3.126a1.043 1.043 0 1 0 2.085-.001 1.043 1.043 0 0 0-2.085.001"/><rect width="32.413" height="4.052" x="222.574" y="197.179" fill="#474747" rx="2.026"/></g><g clip-path="url(#clip3_9781_45406)"><rect width="138.914" height="104.185" x="56.919" y="216.048" fill="#1e1e1e" rx="4.167"/><path fill="#999" d="M187.857 225.09a1.042 1.042 0 1 1 0-2.084 1.042 1.042 0 0 1 0 2.084m0 4.167a1.042 1.042 0 1 1 0-2.084 1.042 1.042 0 0 1 0 2.084m-1.042 3.126a1.043 1.043 0 1 0 2.085-.001 1.043 1.043 0 0 0-2.085.001"/></g><g clip-path="url(#clip4_9781_45406)"><rect width="138.914" height="104.185" x="204.167" y="216.048" fill="#1e1e1e" rx="4.167"/><path fill="#999" d="M335.106 225.09a1.042 1.042 0 1 1 0-2.084 1.042 1.042 0 0 1 0 2.084m0 4.167a1.042 1.042 0 1 1 0-2.084 1.042 1.042 0 0 1 0 2.084m-1.042 3.126a1.043 1.043 0 1 0 2.085-.001 1.043 1.043 0 0 0-2.085.001"/></g></g><path fill="#fff" fill-opacity=".88" d="M160.476 78.609h1.392l3.275 7.998h.113l3.275-7.998h1.392v9.636h-1.091v-7.321h-.094l-3.012 7.32h-1.053l-3.012-7.32h-.094v7.32h-1.091zm14.666 9.786q-1.044 0-1.802-.46a3.1 3.1 0 0 1-1.162-1.3q-.405-.837-.405-1.947t.405-1.957a3.2 3.2 0 0 1 1.139-1.327q.734-.48 1.712-.48.565 0 1.115.188.55.189 1.002.612.451.418.72 1.11t.268 1.703v.47h-5.57v-.96h4.441a2.4 2.4 0 0 0-.244-1.09 1.84 1.84 0 0 0-.687-.758q-.442-.278-1.045-.278-.663 0-1.148.33a2.17 2.17 0 0 0-.739.846 2.5 2.5 0 0 0-.258 1.12v.64q0 .819.282 1.388.286.564.795.861.509.292 1.181.292.438 0 .79-.123.358-.126.617-.376.258-.255.4-.63l1.072.3a2.36 2.36 0 0 1-.569.96 2.8 2.8 0 0 1-.988.64q-.588.226-1.322.226m7.711 0q-1.044 0-1.802-.46a3.1 3.1 0 0 1-1.162-1.3q-.404-.837-.404-1.947t.404-1.957a3.2 3.2 0 0 1 1.139-1.327q.734-.48 1.712-.48.566 0 1.115.188.551.189 1.003.612.452.418.719 1.11.269.692.269 1.703v.47h-5.571v-.96h4.441a2.4 2.4 0 0 0-.244-1.09 1.84 1.84 0 0 0-.687-.758q-.442-.278-1.045-.278-.662 0-1.148.33a2.17 2.17 0 0 0-.738.846 2.5 2.5 0 0 0-.259 1.12v.64q0 .819.282 1.388.288.564.795.861.509.292 1.181.292.438 0 .791-.123.357-.126.616-.376.26-.255.4-.63l1.073.3a2.4 2.4 0 0 1-.57.96 2.8 2.8 0 0 1-.988.64q-.588.226-1.322.226m7.825-7.377v.94h-3.746v-.94zm-2.654-1.731h1.11v6.887q0 .471.137.706a.7.7 0 0 0 .357.31q.222.075.466.076.184 0 .301-.019l.188-.037.226.997q-.113.042-.315.085a2.3 2.3 0 0 1-.513.047q-.47 0-.922-.203a1.83 1.83 0 0 1-.743-.616q-.292-.414-.292-1.044zm4.324 8.958v-7.227h1.11v7.227zm.564-8.431a.8.8 0 0 1-.559-.222.7.7 0 0 1-.231-.531.7.7 0 0 1 .231-.532.8.8 0 0 1 .559-.221q.325 0 .556.221a.7.7 0 0 1 .235.532.7.7 0 0 1-.235.531.78.78 0 0 1-.556.222m3.69 4.083v4.348h-1.11v-7.227h1.073v1.13h.094a2.06 2.06 0 0 1 .771-.885q.518-.34 1.336-.34.735 0 1.285.302.55.297.856.903.306.603.306 1.525v4.592h-1.11v-4.517q0-.852-.443-1.327-.441-.48-1.214-.48-.531 0-.95.23a1.65 1.65 0 0 0-.654.674q-.24.441-.24 1.072m9.557 7.208q-.804 0-1.383-.207a2.9 2.9 0 0 1-.965-.536 3 3 0 0 1-.607-.706l.885-.621q.15.197.381.452.231.258.63.447.405.193 1.059.193.875 0 1.444-.424.57-.423.57-1.327v-1.468h-.094a6 6 0 0 1-.349.49q-.22.287-.639.513-.415.22-1.12.22a3 3 0 0 1-1.572-.413q-.691-.414-1.096-1.205-.4-.79-.4-1.92 0-1.11.391-1.933.39-.828 1.087-1.28.696-.456 1.609-.456.705 0 1.119.235.419.231.64.527.227.291.348.48h.113v-1.148h1.073v7.434q0 .93-.423 1.515-.42.588-1.13.86-.705.279-1.571.278m-.038-3.97q.669 0 1.129-.306a1.9 1.9 0 0 0 .702-.88q.239-.575.239-1.374 0-.78-.235-1.379a2.07 2.07 0 0 0-.696-.936q-.46-.339-1.139-.339-.705 0-1.176.358-.465.357-.701.96-.23.601-.23 1.336 0 .752.235 1.331.24.574.706.904.47.324 1.166.324m8.544-7.49v-1.036h7.227v1.035h-3.03v8.6h-1.167v-8.6zm8.877 8.6v-7.227h1.111v7.227zm.565-8.431a.8.8 0 0 1-.56-.222.7.7 0 0 1-.231-.531.7.7 0 0 1 .231-.532.8.8 0 0 1 .56-.221q.324 0 .555.221a.7.7 0 0 1 .235.532.7.7 0 0 1-.235.531.77.77 0 0 1-.555.222m5.722 1.204v.94h-3.745v-.94zm-2.653-1.731h1.11v6.887q0 .471.136.706a.7.7 0 0 0 .358.31q.221.075.466.076.183 0 .301-.019l.188-.037.226.997q-.112.042-.315.085a2.3 2.3 0 0 1-.513.047q-.47 0-.922-.203a1.84 1.84 0 0 1-.744-.616q-.291-.414-.291-1.044zm5.589-.678v9.636h-1.11v-9.636zm5.064 9.786q-1.045 0-1.802-.46a3.1 3.1 0 0 1-1.162-1.3q-.405-.837-.405-1.947t.405-1.957a3.2 3.2 0 0 1 1.138-1.327q.733-.48 1.713-.48.564 0 1.115.188.55.189 1.002.612.451.418.72 1.11t.268 1.703v.47h-5.571v-.96h4.442q0-.61-.245-1.09a1.84 1.84 0 0 0-.687-.758 1.9 1.9 0 0 0-1.044-.278q-.664 0-1.148.33a2.17 2.17 0 0 0-.739.846 2.5 2.5 0 0 0-.259 1.12v.64q0 .819.283 1.388.286.564.795.861.507.292 1.181.292a2.4 2.4 0 0 0 .79-.123q.357-.126.616-.376.26-.255.4-.63l1.073.3a2.4 2.4 0 0 1-.569.96 2.8 2.8 0 0 1-.988.64q-.588.226-1.322.226"/><rect width="149" height="72" x="126" y="47" stroke="#e7883b" stroke-dasharray="6 6" stroke-linecap="round" stroke-width="2" rx="8"/></g><defs><clipPath id="clip0_9781_45406"><path fill="#fff" d="M0 0h400v300H0z"/></clipPath><clipPath id="clip1_9781_45406"><rect width="138.914" height="104.185" x="56.919" y="103.528" fill="#fff" rx="4.167"/></clipPath><clipPath id="clip2_9781_45406"><rect width="138.914" height="104.185" x="204.167" y="103.528" fill="#fff" rx="4.167"/></clipPath><clipPath id="clip3_9781_45406"><rect width="138.914" height="104.185" x="56.919" y="216.048" fill="#fff" rx="4.167"/></clipPath><clipPath id="clip4_9781_45406"><rect width="138.914" height="104.185" x="204.167" y="216.048" fill="#fff" rx="4.167"/></clipPath><pattern id="pattern0_9781_45406" width=".037" height=".049" patternContentUnits="objectBoundingBox"><use xlink:href="#image0_9781_45406" transform="scale(.00066 .00088)"/></pattern><image xlink:href="data:image/png;base64,iVBORw0KGgoAAAANSUhEUgAAADgAAAA4CAYAAACohjseAAAACXBIWXMAACxLAAAsSwGlPZapAAAAAXNSR0IArs4c6QAAAARnQU1BAACxjwv8YQUAAADdSURBVHgB7dmxDoMgFIXhCzEmbsbF9388F8PGAKHt6dSksvXaHHK+EQbzB0Sj4fFiA4s2OAWyUyA7BbJTIDsFslMgOwWyUyA7BbJTIDsFspvsBrVWO8/TSinWWrNlWWxdV5sm/8sH7w+/iDuO4x32KcZo+767R7pv0ZTSVxxgDKvqzT0w59ydw5b15h4YQujOXa3sr7kHzvPcncNh4809cNu2y1XEGE5Sb+GO32c4SXHY4H5EGFYV4UM8Jv5Nr2rsFMhOgewUyE6B7BTIToHsFMhOgewUyE6B7IYPfALcB0NZ5j6jXgAAAABJRU5ErkJggg==" id="image0_9781_45406" width="56" height="56" preserveAspectRatio="none"/></defs></svg>
